src/images/icons/rocket-icon.svg

<svg width="32" height="32" viewBox="0 0 32 32" fill="none" xmlns="http://www.w3.org/2000/svg">
<path d="M7.23333 13.6334L10.7667 15.1334C11.1667 14.3334 11.5944 13.5445 12.05 12.7667C12.5056 11.9889 12.9889 11.2445 13.5 10.5334L10.8667 10L7.23333 13.6334ZM12.3667 16.3334L16.8 20.7667C18.0667 20.1889 19.2556 19.5334 20.3667 18.8C21.4778 18.0667 22.3778 17.3556 23.0667 16.6667C24.8667 14.8667 26.1889 13.0223 27.0333 11.1334C27.8778 9.24448 28.3333 7.11114 28.4 4.73337C26.0222 4.80003 23.8889 5.25559 22 6.10003C20.1111 6.94448 18.2667 8.2667 16.4667 10.0667C15.7778 10.7556 15.0667 11.6556 14.3333 12.7667C13.6 13.8778 12.9444 15.0667 12.3667 16.3334ZM20 13.1334C19.5556 12.6889 19.3333 12.1389 19.3333 11.4834C19.3333 10.8278 19.5556 10.2778 20 9.83337C20.4444 9.38892 20.9944 9.1667 21.65 9.1667C22.3056 9.1667 22.8556 9.38892 23.3 9.83337C23.7444 10.2778 23.9667 10.8278 23.9667 11.4834C23.9667 12.1389 23.7444 12.6889 23.3 13.1334C22.8556 13.5778 22.3056 13.8 21.65 13.8C20.9944 13.8 20.4444 13.5778 20 13.1334ZM19.5 25.9L23.1333 22.2667L22.6 19.6334C21.8889 20.1445 21.1444 20.6278 20.3667 21.0834C19.5889 21.5389 18.8 21.9667 18 22.3667L19.5 25.9ZM30.3667 2.7667C30.5667 5.78892 30.1889 8.54448 29.2333 11.0334C28.2778 13.5223 26.7 15.8667 24.5 18.0667L24.4333 18.1334L24.3667 18.2L25.1 21.8667C25.1667 22.2 25.15 22.5223 25.05 22.8334C24.95 23.1445 24.7778 23.4223 24.5333 23.6667L18.8333 29.4L16 22.8L10.3333 17.1334L3.73333 14.3L9.46667 8.60003C9.71111 8.35559 9.98889 8.18337 10.3 8.08337C10.6111 7.98337 10.9333 7.9667 11.2667 8.03337L14.9333 8.7667C14.9556 8.74448 14.9778 8.72781 15 8.7167C15.0222 8.70559 15.0444 8.68892 15.0667 8.6667C17.2667 6.4667 19.6111 4.88337 22.1 3.9167C24.5889 2.95003 27.3444 2.5667 30.3667 2.7667V2.7667ZM5.96667 21.1667C6.74444 20.3889 7.69444 19.9945 8.81667 19.9834C9.93889 19.9723 10.8889 20.3556 11.6667 21.1334C12.4444 21.9111 12.8278 22.8611 12.8167 23.9834C12.8056 25.1056 12.4111 26.0556 11.6333 26.8334C11.0556 27.4111 10.1611 27.8889 8.95 28.2667C7.73889 28.6445 5.92222 29 3.5 29.3334C3.83333 26.9111 4.18333 25.0889 4.55 23.8667C4.91667 22.6445 5.38889 21.7445 5.96667 21.1667V21.1667ZM7.36667 22.6C7.05556 22.9334 6.77778 23.4556 6.53333 24.1667C6.28889 24.8778 6.07778 25.7889 5.9 26.9C7.01111 26.7223 7.92222 26.5111 8.63333 26.2667C9.34444 26.0223 9.86667 25.7445 10.2 25.4334C10.6222 25.0556 10.8389 24.5834 10.85 24.0167C10.8611 23.45 10.6667 22.9556 10.2667 22.5334C9.84444 22.1334 9.35 21.9389 8.78333 21.95C8.21667 21.9611 7.74444 22.1778 7.36667 22.6Z" fill="#7EB101"/>
</svg>

<!-- Generated by IcoMoon.io -->
<svg version="1.1" xmlns="http://www.w3.org/2000/svg" width="32" height="32" viewBox="0 0 32 32">
<title>rocket-icon</title>
<path d="M7.233 13.633l3.533 1.5c0.4-0.8 0.828-1.589 1.283-2.367s0.939-1.522 1.45-2.233l-2.633-0.533-3.633 3.633zM12.367 16.333l4.433 4.433c1.267-0.578 2.456-1.233 3.567-1.967s2.011-1.444 2.7-2.133c1.8-1.8 3.122-3.644 3.967-5.533s1.3-4.022 1.367-6.4c-2.378 0.067-4.511 0.522-6.4 1.367s-3.733 2.167-5.533 3.967c-0.689 0.689-1.4 1.589-2.133 2.7s-1.389 2.3-1.967 3.567zM20 13.133c-0.444-0.444-0.667-0.995-0.667-1.65s0.222-1.206 0.667-1.65 0.994-0.667 1.65-0.667c0.656 0 1.206 0.222 1.65 0.667s0.667 0.994 0.667 1.65c0 0.655-0.222 1.206-0.667 1.65s-0.994 0.667-1.65 0.667-1.206-0.222-1.65-0.667zM19.5 25.9l3.633-3.633-0.533-2.633c-0.711 0.511-1.456 0.994-2.233 1.45s-1.567 0.883-2.367 1.283l1.5 3.533zM30.367 2.767c0.2 3.022-0.178 5.778-1.133 8.267s-2.533 4.833-4.733 7.033l-0.133 0.133 0.733 3.667c0.067 0.333 0.050 0.656-0.050 0.967s-0.272 0.589-0.517 0.833l-5.7 5.733-2.833-6.6-5.667-5.667-6.6-2.833 5.733-5.7c0.244-0.244 0.522-0.417 0.833-0.517s0.633-0.117 0.967-0.050l3.667 0.733c0.022-0.022 0.044-0.039 0.067-0.050s0.044-0.028 0.067-0.050c2.2-2.2 4.544-3.783 7.033-4.75s5.244-1.35 8.267-1.15v0zM5.967 21.167c0.778-0.778 1.728-1.172 2.85-1.183s2.072 0.372 2.85 1.15c0.778 0.778 1.161 1.728 1.15 2.85s-0.406 2.072-1.183 2.85c-0.578 0.578-1.472 1.055-2.683 1.433s-3.028 0.733-5.45 1.067c0.333-2.422 0.683-4.244 1.050-5.467s0.839-2.122 1.417-2.7v0zM7.367 22.6c-0.311 0.333-0.589 0.856-0.833 1.567s-0.456 1.622-0.633 2.733c1.111-0.178 2.022-0.389 2.733-0.633s1.233-0.522 1.567-0.833c0.422-0.378 0.639-0.85 0.65-1.417s-0.183-1.061-0.583-1.483c-0.422-0.4-0.917-0.595-1.483-0.583s-1.039 0.228-1.417 0.65z"></path>
</svg>
